packages/kaspersky-hexa-ui-icons/src/iconsSVGs/32/EveryNWeeks.svg

<svg xmlns="http://www.w3.org/2000/svg" width="32" height="32" fill="none" viewBox="0 0 32 32"><path fill="#000" fill-rule="evenodd" d="M9 7c0 1.1046-.8954 2-2 2s-2-.8954-2-2 .8954-2 2-2 2 .8954 2 2m6 0c0 1.1046-.8954 2-2 2s-2-.8954-2-2 .8954-2 2-2 2 .8954 2 2m6 0c0 1.1046-.8954 2-2 2s-2-.8954-2-2 .8954-2 2-2 2 .8954 2 2m6 0c0 1.1046-.8954 2-2 2s-2-.8954-2-2 .8954-2 2-2 2 .8954 2 2M9 19c0 1.1046-.8954 2-2 2s-2-.8954-2-2 .8954-2 2-2 2 .8954 2 2m6 0c0 1.1046-.8954 2-2 2a1.993 1.993 0 0 1-1.3732-.546A1.994 1.994 0 0 1 11 19c0-1.1046.8954-2 2-2 .5608 0 1.0676.2308 1.4308.6025.3522.3606.5692.8537.5692 1.3975m6 0c0 1.1046-.8954 2-2 2s-2-.8954-2-2 .8954-2 2-2 2 .8954 2 2m6 0c0 1.1046-.8954 2-2 2s-2-.8954-2-2 .8954-2 2-2 2 .8954 2 2"/><path d="M9 13c0 1.1046-.8954 2-2 2s-2-.8954-2-2 .8954-2 2-2 2 .8954 2 2m6 0c0 1.1046-.8954 2-2 2s-2-.8954-2-2 .8954-2 2-2 2 .8954 2 2m6 0c0 1.1046-.8954 2-2 2s-2-.8954-2-2 .8954-2 2-2 2 .8954 2 2m6 0c0 1.1046-.8954 2-2 2s-2-.8954-2-2 .8954-2 2-2 2 .8954 2 2M9 25c0 1.1046-.8954 2-2 2s-2-.8954-2-2 .8954-2 2-2 2 .8954 2 2m6 0c0 1.1046-.8954 2-2 2s-2-.8954-2-2 .8954-2 2-2 2 .8954 2 2m6 0c0 1.1046-.8954 2-2 2s-2-.8954-2-2 .8954-2 2-2 2 .8954 2 2m6 0c0 1.1046-.8954 2-2 2s-2-.8954-2-2 .8954-2 2-2 2 .8954 2 2"/></svg>

<svg width="32" height="32" viewBox="0 0 32 32" fill="none" xmlns="http://www.w3.org/2000/svg">
<path d="M9 7C9 8.10457 8.10457 9 7 9C5.89543 9 5 8.10457 5 7C5 5.89543 5.89543 5 7 5C8.10457 5 9 5.89543 9 7Z" fill="black"/>
<path d="M15 7C15 8.10457 14.1046 9 13 9C11.8954 9 11 8.10457 11 7C11 5.89543 11.8954 5 13 5C14.1046 5 15 5.89543 15 7Z" fill="black"/>
<path d="M21 7C21 8.10457 20.1046 9 19 9C17.8954 9 17 8.10457 17 7C17 5.89543 17.8954 5 19 5C20.1046 5 21 5.89543 21 7Z" fill="black"/>
<path d="M27 7C27 8.10457 26.1046 9 25 9C23.8954 9 23 8.10457 23 7C23 5.89543 23.8954 5 25 5C26.1046 5 27 5.89543 27 7Z" fill="black"/>
<path d="M9 19C9 20.1046 8.10457 21 7 21C5.89543 21 5 20.1046 5 19C5 17.8954 5.89543 17 7 17C8.10457 17 9 17.8954 9 19Z" fill="black"/>
<path d="M15 19C15 20.1046 14.1046 21 13 21C12.4683 21 11.985 20.7925 11.6268 20.454C11.2408 20.0894 11 19.5728 11 19C11 17.8954 11.8954 17 13 17C13.5608 17 14.0676 17.2308 14.4308 17.6025C14.783 17.9631 15 18.4562 15 19Z" fill="black"/>
<path d="M21 19C21 20.1046 20.1046 21 19 21C17.8954 21 17 20.1046 17 19C17 17.8954 17.8954 17 19 17C20.1046 17 21 17.8954 21 19Z" fill="black"/>
<path d="M27 19C27 20.1046 26.1046 21 25 21C23.8954 21 23 20.1046 23 19C23 17.8954 23.8954 17 25 17C26.1046 17 27 17.8954 27 19Z" fill="black"/>
<path d="M9 13C9 14.1046 8.10457 15 7 15C5.89543 15 5 14.1046 5 13C5 11.8954 5.89543 11 7 11C8.10457 11 9 11.8954 9 13Z" fill="black" fill-opacity="0.1"/>
<path d="M15 13C15 14.1046 14.1046 15 13 15C11.8954 15 11 14.1046 11 13C11 11.8954 11.8954 11 13 11C14.1046 11 15 11.8954 15 13Z" fill="black" fill-opacity="0.1"/>
<path d="M21 13C21 14.1046 20.1046 15 19 15C17.8954 15 17 14.1046 17 13C17 11.8954 17.8954 11 19 11C20.1046 11 21 11.8954 21 13Z" fill="black" fill-opacity="0.1"/>
<path d="M27 13C27 14.1046 26.1046 15 25 15C23.8954 15 23 14.1046 23 13C23 11.8954 23.8954 11 25 11C26.1046 11 27 11.8954 27 13Z" fill="black" fill-opacity="0.1"/>
<path d="M9 25C9 26.1046 8.10457 27 7 27C5.89543 27 5 26.1046 5 25C5 23.8954 5.89543 23 7 23C8.10457 23 9 23.8954 9 25Z" fill="black" fill-opacity="0.1"/>
<path d="M15 25C15 26.1046 14.1046 27 13 27C11.8954 27 11 26.1046 11 25C11 23.8954 11.8954 23 13 23C14.1046 23 15 23.8954 15 25Z" fill="black" fill-opacity="0.1"/>
<path d="M21 25C21 26.1046 20.1046 27 19 27C17.8954 27 17 26.1046 17 25C17 23.8954 17.8954 23 19 23C20.1046 23 21 23.8954 21 25Z" fill="black" fill-opacity="0.1"/>
<path d="M27 25C27 26.1046 26.1046 27 25 27C23.8954 27 23 26.1046 23 25C23 23.8954 23.8954 23 25 23C26.1046 23 27 23.8954 27 25Z" fill="black" fill-opacity="0.1"/>
</svg>
